!!!COM: Music21
!!!OTL: No carnaval de Vilariño
!!!OMV: pezas_rumbas_no-carnaval-de-vilarino_no-carnaval-de-vilarino-partitura.musicxml
**kern
*part1
*staff1
*I"Bagpipes
*I'Bag
*clefG^2
*k[]
*M2/4
=1
!LO:TX:a:t=Andante
*MM100
!LO:TX:a:t=[quarter]=100
4.r
16cccLL
16bbJJ
=||
8aaL
16bbL
16aaJJ
8ggL
16aaL
16ggJJ
=
8bbL
[8ffJ
8ffL]
16bbL
16aaJJ
=
8ggL
16aaL
16ggJJ
8ffL
16ggL
16ffJJ
=
4.ee
16cccLL
16bbJJ
=
8aaL
16bbL
16aaJJ
8ggL
16aaL
16ggJJ
=
8bbL
[8ffJ
8ffL]
16bbL
16aaJJ
!!linebreak:original
=
8ggL
16aaL
16ggJJ
8ffL
16ggL
16ffJJ
!!linebreak:original
=
4.ee
16cccLL
16bbJJ
=||
8aaL
16bbL
16aaJJ
8ggL
16aaL
16ggJJ
=
8bbL
[8ffJ
8ffL]
16bbL
16aaJJ
=
8ggL
16aaL
16ggJJ
8ffL
16ggL
16ffJJ
=
4.ee
16cccLL
16bbJJ
=
8aaL
16bbL
16aaJJ
8ggL
16aaL
16ggJJ
=
8bbL
[8ffJ
8ffL]
16bbL
16aaJJ
=
8ggL
16aaL
16ggJJ
8ffL
16ggL
16ffJJ
!!linebreak:original
=
[2ee
=
8eeL]
8eeJ
8ffL
8ggJ
=
8aaL
16aaL
16ffJJ
8aaL
8ffJ
=
8.aaL
16aaJk
8bbL
8cccJ
=
4.bb
16aaLL
16bbJJ
=
4gg
.
8aaL
8bbJ
=
4.aa
8gg
=
4ff
.
8ggL
8aaJ
=
8bbL
8ggJ
8ggL
8ffJ
=
[2ee
!!linebreak:original
=
8.eeL]
.
16eeJk
8ffL
8ggJ
=
8aaL
16aaL
16ffJJ
8aaL
8ffJ
=
8.aaL
16aaJk
8bbL
8cccJ
=
4.bb
8aa
=
4gg
.
8aaL
8bbJ
=
4.aa
8gg
=
8.ffL
16ffJk
8ggL
8aaJ
=
8bbL
8ggJ
8ggL
8ffJ
=||
[2ee
=
4.ee]
16cccLL
16bbJJ
!!linebreak:original
=
8aaL
16bbL
16aaJJ
8ggL
16aaL
16ggJJ
=||
[2ee
=
4.ee]
24ccLL
24ee
24ggJJ
=
4ccc
==
*-
!!!system-decoration: s1,s2
